X:262
T: Maria Magdalena - Ruf
N: A0618
O: Europa, Mitteleuropa, Deutschland
N: Beuttner 1602 II No. 8.
R: Romanze, Ballade, Lied, religioeses Lied
M: 4/2
L: 1/2
K: G
G | _B2c2 | d2=f2 | dc_BA | G2
G2 | d2de | =f2g2 | =f2z
g | g2g2 | =f2_ee | dcd2 | c2
=f2 | _edc2 | _BcBA | G3

